!!!COM: Anon.
!!!OTL: Dodoitsu
!!!OTC: Japanese Popular Music: A Collection of The Popular Music of Japan Rendered in to the Staff notation.
!!!CNT: Nippon, Japanese
!!!TXO: Nippon, Japan
!!!OCY: Nippon, Japan
!!!ODT: <1892///
!!!PSR: S. Miki & Co.
!!!PSP: Osaka, Nippon
!!!PDT: 1892///
!!!PPE: Y Nagai & K. Kobatake
!!!PED: Revised Second Edition
!!!PPG: page 93
!! Moderato
**kern	**silbe
*ICstr	*Lnippon
*ICvox	*
*Ikoto	*
*Ivox	*
*clefG2	*
*k[]	*
*M4/4	*
8.f	.
16e	.
=1	=1
4a	.
8b	.
8ee	.
4b	.
8.b	.
16a	.
=2	=2
4e	.
4B	.
4r	.
4aa	.
=3	=3
4bb	.
4ff	.
8ee	.
8ee	.
8r	.
8ee	.
=4	=4
4ff	.
4ee	.
4a	.
8b	.
8ee	.
=5	=5
4b	.
8.b	.
16a	.
4e	.
4B	.
=6	=6
8r	.
8b	.
4b	.
4b	.
8b	.
8e	.
=7	=7
4f	.
4a	.
8b	.
8ee	.
4b	.
=8	=8
8.b	.
16a	.
4e	.
4c 4e	.
4r	.
=9	=9
8.c 8.e	.
16B	.
4cc	.
4ee	.
4ff	.
=10	=10
4ee	.
4cc	.
4b	.
4a	.
=11	=11
8b	.
8ee	.
4b	.
4r	.
8.b	.
16a	.
=12	=12
4e	.
4B	.
4r	.
8.f	.
16e	.
=13	=13
4a	.
8b	.
8ee	.
4b	.
8.b	.
16a	.
=14	=14
4e	.
4B	.
4r	.
4aa	.
=15	=15
4bb	.
4ff	.
8ee	.
8ee	.
8r	.
8ee	.
=16	=16
4ff	.
4ee	.
4a	.
8b	.
8ee	.
=17	=17
4b	.
8.b	.
16a	.
4e	.
4B	.
=18	=18
8r	.
8b	.
4b	.
4b	.
8b	.
8e	.
=19	=19
4f	.
4a	.
8b	.
8ee	.
4b	.
=20	=20
8.b	.
16a	.
4e	.
4c 4e	.
4r	.
=21	=21
8.c 8.e	.
16B	.
4cc	.
4ee	.
4ff	.
=22	=22
4ee	.
4cc	.
4b	.
4a	.
=23	=23
8b	.
8ee	.
4b	.
4r	.
8.b	.
16a	.
=24	=24
4e	.
4B	.
4cc	.
==	==
*-	*-
!!!ENC: David Huron
!!!RDT: 2000/1/30
!!!EEV: Release 1.0
!!!ELF: 25/28
!!!YER: 2000/2/1
!!!YEM: Copyright David Huron, 2000
!!!YEN: United States of America
